FINK
CUT[WENN DER SCHNEE VON DER ALMA WEGGAGEHT]
REG[Europa, Mitteleuropa, Oesterreich, Tirol]
KEY[F0226  16  A 3/4]
MEL[-5_.-6  -5_1_1_1_1_1_  4_.4-7__
    -5_.-6  -5_-7_-7_-7_-6_-5_  3_3_1__
    (-5_-6_-7_)  1_.13_2_1_-7_  -6_.-64_3_2_1_
    -7_.55_5_4_.2  1___
    (-5_-6_-7_)  1__-3_-5_1_3_  4_034_032__
    4_034_032__  3_023_021__
    -5__-3_-5_1_3_  4_034_032_0
    1  -7_2_4_6_5_0-7  1__+1_0_ //] >>
FCT[Jahreszeiten - Lied, Fruehling]
